symbolic/64x64/apps/adventures-of-shuggy.svg

<svg width="64" height="64" version="1.1" xmlns="http://www.w3.org/2000/svg">
 <path d="m12 44-2-8-3 3-3-20s12 11 28 11 28-11 28-11l-3 20-3-3-2 8-6-8h-28z" style="opacity:.2"/>
 <path d="m12 43-2-8-3 3-3-20s12 11 28 11 28-11 28-11l-3 20-3-3-2 8-6-8h-28z" style="fill:#323232"/>
 <path d="m4 18 0.1621094 1.140625c0.847022 0.756986 12.431682 10.859375 27.837891 10.859375s26.990869-10.102389 27.837891-10.859375l0.162109-1.140625s-12 11-28 11-28-11-28-11z" style="fill:#ffffff;opacity:.1"/>
 <path d="m18 50 6 11 8-9 8 9 6-11v-3h-28z" style="opacity:.2"/>
 <path d="m18 49 6 11 8-9 8 9 6-11v-3h-28z" style="fill:#e4e4e4"/>
 <path d="m15 5v45s6 3 17 3 17-3 17-3v-45l-11 14h-12z" style="opacity:.1"/>
 <path d="m15 4v45s6 3 17 3 17-3 17-3v-45l-11 14h-12z" style="fill:#9966ff"/>
 <circle cx="25" cy="40" r="7" style="opacity:.2"/>
 <circle cx="25" cy="39" r="7" style="fill:#15b7ff"/>
 <circle cx="39" cy="40" r="7" style="opacity:.2"/>
 <circle cx="39" cy="39" r="7" style="fill:#15b7ff"/>
 <path d="m15 4v1l11 14h12l11-14v-1l-11 14h-12l-11-14z" style="fill:#ffffff;opacity:.2"/>
 <path d="M 25 32 A 7 7 0 0 0 18 39 A 7 7 0 0 0 18.023438 39.541016 A 7 7 0 0 1 25 33 A 7 7 0 0 1 31.976562 39.458984 A 7 7 0 0 0 32 39 A 7 7 0 0 0 25 32 z " style="fill:#ffffff;opacity:.2"/>
 <path d="M 39 32 A 7 7 0 0 0 32 39 A 7 7 0 0 0 32.023438 39.541016 A 7 7 0 0 1 39 33 A 7 7 0 0 1 45.976562 39.458984 A 7 7 0 0 0 46 39 A 7 7 0 0 0 39 32 z " style="fill:#ffffff;opacity:.2"/>
</svg>

<svg width="64" height="64" xmlns="http://www.w3.org/2000/svg"><path d="m12 44-2-8-3 3-3-20s12 11 28 11 28-11 28-11l-3 20-3-3-2 8-6-8H18z" style="opacity:.2"/><path d="m12 43-2-8-3 3-3-20s12 11 28 11 28-11 28-11l-3 20-3-3-2 8-6-8H18z" style="fill:#323232"/><path d="m4 18 .162 1.14C5.01 19.899 16.594 30 32 30s26.99-10.102 27.838-10.86L60 18S48 29 32 29 4 18 4 18z" style="fill:#fff;opacity:.1"/><path d="m18 50 6 11 8-9 8 9 6-11v-3H18z" style="opacity:.2"/><path d="m18 49 6 11 8-9 8 9 6-11v-3H18z" style="fill:#e4e4e4"/><path d="M15 5v45s6 3 17 3 17-3 17-3V5L38 19H26z" style="opacity:.1"/><path d="M15 4v45s6 3 17 3 17-3 17-3V4L38 18H26z" style="fill:#96f"/><circle cx="25" cy="40" r="7" style="opacity:.2"/><circle cx="25" cy="39" r="7" style="fill:#15b7ff"/><circle cx="39" cy="40" r="7" style="opacity:.2"/><circle cx="39" cy="39" r="7" style="fill:#15b7ff"/><path d="M15 4v1l11 14h12L49 5V4L38 18H26L15 4zM25 32a7 7 0 0 0-7 7 7 7 0 0 0 .023.541A7 7 0 0 1 25 33a7 7 0 0 1 6.977 6.459A7 7 0 0 0 32 39a7 7 0 0 0-7-7zM39 32a7 7 0 0 0-7 7 7 7 0 0 0 .023.541A7 7 0 0 1 39 33a7 7 0 0 1 6.977 6.459A7 7 0 0 0 46 39a7 7 0 0 0-7-7z" style="fill:#fff;opacity:.2"/></svg>
